X: 1
T:Old Red Barn, The
R:Jig
Z:<cfalt@trytel.com> www.trytel.com/~cfalt/Fiddle/The_List.abc
M:6/8
L:1/8
K:G
D|"G"G,B,D G2B|"D7"AGF "G"G2B|ded "D"cBA|"G"GFE "D"D2D|!
"G"G,B,D G2B|"D"AGF "G"G2B|ded "D"cBA|"G"G3 G2:|!
|:d|"G"g2g f2f|"C"e2e "G"d2B|"D"cAF DFA|"G"edB G2d|!
gag "D"fgf|"C"efe "G"d2B|"D"cAF DEF|"G"G3 G2:|!
